X: 2
T: La Partida
R: waltz
M: 3/4
L: 1/8
K: Bmin
FGF^EF|:"Bm"d3FdF|d3FdF|"F#"de/d/c^Bc2|zEFE^DE|"F#"c3EcE|c3EcE|"Bm"cd/c/B^AB2|zFGF^EF|"B7"B2^A(BB)=c|B2A(GG)F|"Em"FG/F/E^DE2|zgfedc|"Bm"b,^a,b,cde|"F#"fgfedc|"Bm"b,c/b,/^a,b,df|1BFGF^EF:|2BzF2F2|||:"F#"feFfeF|feFfeF|"Bm"edFedF|edFedF|"F#"dcFdcF|dcFdcF|"Bm"cBFcBF|cBFcBF|"B7"BAFBAF|BAFBAF|"Em"FG/F/E^DE2|zgfedc|"Bm"b,^a,b,cde|"F#"fgfedc|"Bm"b,c/b,/^a,b,df|1BzF2F2:|2B|]


Tune 3575	Setting 16602

